apps/explorer/src/assets/img/doc.svg

<svg fill="none" height="16" viewBox="0 0 18 16" width="18" xmlns="http://www.w3.org/2000/svg"><g clip-rule="evenodd" fill="#c5d9ed" fill-rule="evenodd"><path d="m.5 1.25c0-.552285.447715-1 1-1h4.5c1.06087 0 2.07828.421427 2.82843 1.17157.75014.75015 1.17157 1.76756 1.17157 2.82843v10.5c0 .5523-.44771 1-1 1-.55228 0-1-.4477-1-1 0-.3315-.1317-.6495-.36612-.8839s-.55236-.3661-.88388-.3661h-5.25c-.552285 0-1-.4477-1-1zm7.5 10.5v-7.5c0-.53043-.21071-1.03914-.58579-1.41421-.37507-.37508-.88378-.58579-1.41421-.58579h-3.5v9.25h4.25c.43329 0 .85765.0865 1.25.25z"/><path d="m9.17157 1.42157c.75015-.750143 1.76753-1.17157 2.82843-1.17157h4.5c.5523 0 1 .447715 1 1v11.25c0 .5523-.4477 1-1 1h-5.25c-.3315 0-.6495.1317-.8839.3661s-.3661.5524-.3661.8839c0 .5523-.44771 1-1 1-.55228 0-1-.4477-1-1v-10.5c0-1.06087.42143-2.07828 1.17157-2.82843zm.82843 10.32843c.3923-.1635.8167-.25 1.25-.25h4.25v-9.25h-3.5c-.5304 0-1.0391.21071-1.4142.58579-.3751.37507-.5858.88378-.5858 1.41421z"/></g></svg>

<svg width="18" height="16" viewBox="0 0 18 16" fill="none" xmlns="http://www.w3.org/2000/svg">
<path fill-rule="evenodd" clip-rule="evenodd" d="M0.5 1.25C0.5 0.697715 0.947715 0.25 1.5 0.25H6C7.06087 0.25 8.07828 0.671427 8.82843 1.42157C9.57857 2.17172 10 3.18913 10 4.25V14.75C10 15.3023 9.55229 15.75 9 15.75C8.44772 15.75 8 15.3023 8 14.75C8 14.4185 7.8683 14.1005 7.63388 13.8661C7.39946 13.6317 7.08152 13.5 6.75 13.5H1.5C0.947715 13.5 0.5 13.0523 0.5 12.5V1.25ZM8 11.75V4.25C8 3.71957 7.78929 3.21086 7.41421 2.83579C7.03914 2.46071 6.53043 2.25 6 2.25H2.5V11.5H6.75C7.18329 11.5 7.60765 11.5865 8 11.75Z" fill="#C5D9ED"/>
<path fill-rule="evenodd" clip-rule="evenodd" d="M9.17157 1.42157C9.92172 0.671427 10.9391 0.25 12 0.25H16.5C17.0523 0.25 17.5 0.697715 17.5 1.25V12.5C17.5 13.0523 17.0523 13.5 16.5 13.5H11.25C10.9185 13.5 10.6005 13.6317 10.3661 13.8661C10.1317 14.1005 10 14.4185 10 14.75C10 15.3023 9.55229 15.75 9 15.75C8.44772 15.75 8 15.3023 8 14.75V4.25C8 3.18913 8.42143 2.17172 9.17157 1.42157ZM10 11.75C10.3923 11.5865 10.8167 11.5 11.25 11.5H15.5V2.25H12C11.4696 2.25 10.9609 2.46071 10.5858 2.83579C10.2107 3.21086 10 3.71957 10 4.25V11.75Z" fill="#C5D9ED"/>
</svg>
